packages/tokens/icons/bugReport/size32Px.svg

<svg viewBox="0 0 32 32" fill="none" xmlns="http://www.w3.org/2000/svg" width="1em" height="1em"><path d="M5.56846 28.9931L5.56844 28.9931L5.56526 28.9961C4.41576 30.0905 2.5 29.281 2.5 27.5718L2.5 4.5C2.5 3.44408 3.4811 2.5 4.5 2.5L27.5 2.5C28.5371 2.5 29.5 3.3935 29.5 4.43184V23.3872C29.5 23.9078 29.2615 24.4418 28.8716 24.8502C28.481 25.2594 27.9799 25.5 27.5 25.5H10.2896C9.65543 25.5 9.04492 25.741 8.58177 26.1743L5.56846 28.9931Z" stroke="currentColor" stroke-linecap="round" stroke-linejoin="round"/><path d="M18.5 12.5L19.2071 11.7929C19.3946 11.6054 19.5 11.351 19.5 11.0858V9.5" stroke="currentColor" stroke-linecap="round" stroke-linejoin="round"/><path d="M18 16.5L19.0547 17.2031C19.3329 17.3886 19.5 17.7008 19.5 18.0352V19.5" stroke="currentColor" stroke-linecap="round" stroke-linejoin="round"/><path d="M18.5 14.5H20.5" stroke="currentColor" stroke-linecap="round" stroke-linejoin="round"/><path d="M13.5 12.5L12.7929 11.7929C12.6054 11.6054 12.5 11.351 12.5 11.0858V9.5" stroke="currentColor" stroke-linecap="round" stroke-linejoin="round"/><path d="M14 16.5L12.9453 17.2031C12.6671 17.3886 12.5 17.7008 12.5 18.0352V19.5" stroke="currentColor" stroke-linecap="round" stroke-linejoin="round"/><path d="M13.5 14.5H11.5" stroke="currentColor" stroke-linecap="round" stroke-linejoin="round"/><path d="M16 18C14 18 11.4999 11.5 16 11.5C20.5 11.5 17.9999 18 16 18Z" stroke="currentColor" stroke-linecap="round" stroke-linejoin="round"/><circle cx="16" cy="10.5" r="1" stroke="currentColor" stroke-linecap="round" stroke-linejoin="round"/></svg>

<svg xmlns="http://www.w3.org/2000/svg" fill="none" viewBox="0 0 32 32" width="1em" height="1em"><path stroke="currentColor" stroke-linecap="round" stroke-linejoin="round" d="M5.568 28.993h0l-.003.003c-1.15 1.095-3.065.285-3.065-1.424V4.5c0-1.056.981-2 2-2h23c1.037 0 2 .893 2 1.932v18.955c0 .52-.238 1.055-.628 1.463-.391.41-.892.65-1.372.65H10.29a2.5 2.5 0 0 0-1.708.674l-3.014 2.82Z"/><path stroke="currentColor" stroke-linecap="round" stroke-linejoin="round" d="m18.5 12.5.707-.707a1 1 0 0 0 .293-.707V9.5m-1.5 7 1.055.703a1 1 0 0 1 .445.832V19.5m-1-5h2m-7-2-.707-.707a1 1 0 0 1-.293-.707V9.5m1.5 7-1.055.703a1 1 0 0 0-.445.832V19.5m1-5h-2"/><path stroke="currentColor" stroke-linecap="round" stroke-linejoin="round" d="M16 18c-2 0-4.5-6.5 0-6.5s2 6.5 0 6.5Z"/><circle cx="16" cy="10.5" r="1" stroke="currentColor" stroke-linecap="round" stroke-linejoin="round"/></svg>
